X: 3
T: The Pigeon On The Gate
R: reel
M: 4/4
L: 1/8
K: Edor
dc|BE~E2 BEdE|BE~E2 BAFE|D2dB ADED|D3A BAFA|BE~E2 BEdE|~B2Ad BAFE|DEFA dfed|dBAF E2|dc|BE~E2 BEdE|BE~E2 BAFE|D2dB ADED|D3A BAFA|BE~E2 BEdE|BE~E2 BAFE|DEFA dfed|1dBAF E2:|2dBAF ~E3A|||:B2ee efed|Beef gfed|Bddc d3B|AddB ADFA|B2ee efed|Bdef g2fg|(3agf fe faec|1dBAF E3A:|2dBAF E2||


Tune 517	Setting 23096

